X:23
T:Catherine Kelly's 
R:slip jig
M:9/8
K:G
|:"Em"E2E EFE EDB,|"Em"E2B "D"D2B A,B,D|"Em"E2E EFE EDB,|
1 "D"D3 D2B, A,B,D:|2 "D"D3 D2B,DEF|:"Em"G2E FED E2F|"Em"G2E FDB, A,B,D| \
"C"G2E "D"FED EDB,|1 "D"D3D 2B,DEF:|2 "D"D3D 2B, A,B,D|
